icons/reports-generator.svg

<svg
  xmlns="http://www.w3.org/2000/svg"
  viewBox="0 0 500 500"
  width="500"
  height="500"
  fill="#ffffff"
>
  <path d="M395.1 302.8V284H104.9v18.8h39.6a35.7 35.7 0 0 0-.4 4.7V456a39.1 39.1 0 0 0 39.1 39h133.7a39.1 39.1 0 0 0 39-39V307.5a35.9 35.9 0 0 0-.3-4.7zm-58.7 4.7V456a19.6 19.6 0 0 1-19.5 19.5H183.2a19.5 19.5 0 0 1-19.5-19.5V307.5a18.4 18.4 0 0 1 .6-4.7h171.4a18.4 18.4 0 0 1 .7 4.7z" />
  <circle
    cx="76.7"
    cy="146.5"
    r="24.1"
    transform="rotate(-13.3 76.405 146.27)"
  />
  <circle
    cx="159.4"
    cy="146.5"
    r="24.1"
    transform="rotate(-45 159.376 146.484)"
  />
  <path d="M322.6 146.5a57.1 57.1 0 1 0-57.1 57.1 57.1 57.1 0 0 0 57.1-57.1zm-95.5 0a38.4 38.4 0 1 1 47.8 37.2v-37.2a9.4 9.4 0 0 0-18.8 0v37.2a38.5 38.5 0 0 1-29-37.2z" />
  <path d="M452.2 146.5a57.1 57.1 0 1 0-57.1 57.1 57.1 57.1 0 0 0 57.1-57.1zm-95.5 0a38.4 38.4 0 1 1 47.8 37.2v-37.2a9.4 9.4 0 1 0-18.8 0v37.2a38.5 38.5 0 0 1-29-37.2z" />
  <path d="M187.6 355.4h124.8a9.8 9.8 0 1 0 0-19.5H187.6a9.8 9.8 0 0 0 0 19.5z" />
  <path d="M187.6 398.5h124.8a9.8 9.8 0 1 0 0-19.5H187.6a9.8 9.8 0 0 0 0 19.5z" />
  <path d="M187.6 441.6h62.6a9.8 9.8 0 0 0 0-19.6h-62.6a9.8 9.8 0 0 0 0 19.6z" />
  <path d="M436 53.5H301.5V22.8A17.8 17.8 0 0 0 283.7 5h-36.4a17.8 17.8 0 0 0-17.8 17.8v30.7h-11.4V22.8A17.8 17.8 0 0 0 200.3 5H164a17.9 17.9 0 0 0-17.9 17.8v30.7h-11.3V22.8A17.8 17.8 0 0 0 117 5H80.6a17.8 17.8 0 0 0-17.8 17.8v30.7a56.9 56.9 0 0 0-55.6 56.8V299h-.1v126.4h114.8v-75H64a38.2 38.2 0 0 1-38.1-38.1v-202a38.1 38.1 0 0 1 38.1-38h372a38.1 38.1 0 0 1 38.1 38v202a38.2 38.2 0 0 1-38.1 38.1h-58.3v75.3h115.2V110.3A56.9 56.9 0 0 0 436 53.5zm-354.4 0V23.8H116v29.7zm83.3 0V23.8h34.4v29.7zm83.4 0V23.8h34.4v29.7z" />
</svg>

<svg xmlns="http://www.w3.org/2000/svg" viewBox="0 0 500 500">
  <g id="report-generator">
    <path id="report-outline" d="M395.1,302.8V284H104.9v18.8h39.6a35.7,35.7,0,0,0-.4,4.7V456a39.1,39.1,0,0,0,39.1,39H316.9a39.1,39.1,0,0,0,39-39V307.5a35.9,35.9,0,0,0-.3-4.7Zm-58.7,4.7V456a19.6,19.6,0,0,1-19.5,19.5H183.2A19.5,19.5,0,0,1,163.7,456V307.5a18.4,18.4,0,0,1,.6-4.7H335.7A18.4,18.4,0,0,1,336.4,307.5Z"/>
    <circle id="button1" cx="76.7" cy="146.5" r="24.1" transform="translate(-31.6 21.5) rotate(-13.3)"/>
    <circle id="button2" cx="159.4" cy="146.5" r="24.1" transform="translate(-56.9 155.6) rotate(-45)"/>
    <path id="dial1" d="M322.6,146.5a57.1,57.1,0,1,0-57.1,57.1A57.1,57.1,0,0,0,322.6,146.5Zm-95.5,0a38.4,38.4,0,1,1,47.8,37.2V146.5a9.4,9.4,0,0,0-18.8,0v37.2A38.5,38.5,0,0,1,227.1,146.5Z"/>
    <path id="dial2" d="M452.2,146.5a57.1,57.1,0,1,0-57.1,57.1A57.1,57.1,0,0,0,452.2,146.5Zm-95.5,0a38.4,38.4,0,1,1,47.8,37.2V146.5a9.4,9.4,0,1,0-18.8,0v37.2A38.5,38.5,0,0,1,356.7,146.5Z"/>
    <path id="line2" d="M187.6,355.4H312.4a9.8,9.8,0,1,0,0-19.5H187.6a9.8,9.8,0,0,0,0,19.5Z"/>
    <path id="line3" d="M187.6,398.5H312.4a9.8,9.8,0,1,0,0-19.5H187.6a9.8,9.8,0,0,0,0,19.5Z"/>
    <path id="line4" d="M187.6,441.6h62.6a9.8,9.8,0,0,0,0-19.6H187.6a9.8,9.8,0,0,0,0,19.6Z"/>
    <path id="outline" d="M436,53.5H301.5V22.8A17.8,17.8,0,0,0,283.7,5H247.3a17.8,17.8,0,0,0-17.8,17.8V53.5H218.1V22.8A17.8,17.8,0,0,0,200.3,5H164a17.9,17.9,0,0,0-17.9,17.8V53.5H134.8V22.8A17.8,17.8,0,0,0,117,5H80.6A17.8,17.8,0,0,0,62.8,22.8V53.5A56.9,56.9,0,0,0,7.2,110.3V299H7.1V425.4H121.9v-75H64a38.2,38.2,0,0,1-38.1-38.1v-202A38.1,38.1,0,0,1,64,72.3H436a38.1,38.1,0,0,1,38.1,38v202A38.2,38.2,0,0,1,436,350.4H377.7v75.3H492.9V110.3A56.9,56.9,0,0,0,436,53.5Zm-354.4,0V23.8H116V53.5Zm83.3,0V23.8h34.4V53.5Zm83.4,0V23.8h34.4V53.5Z"/>
  </g>
</svg>
